packages/icons/web/card_reader_large.svg

<svg width="24" height="24" viewBox="0 0 24 24" fill="none" xmlns="http://www.w3.org/2000/svg">
<path d="M7 7.95V6.55C7 6.52239 7.02239 6.5 7.05 6.5H16.95C16.9776 6.5 17 6.52239 17 6.55V7.95C17 7.97761 16.9776 8 16.95 8H7.05C7.02239 8 7 7.97761 7 7.95Z" stroke="#212933" stroke-width="2"/>
<circle cx="8" cy="11.5" r="0.5" stroke="#212933" stroke-miterlimit="16"/>
<circle cx="8" cy="17" r="0.5" stroke="#212933" stroke-miterlimit="16"/>
<circle cx="8" cy="14.25" r="0.5" stroke="#212933" stroke-miterlimit="16"/>
<circle cx="12" cy="11.5" r="0.5" stroke="#212933" stroke-miterlimit="16"/>
<circle cx="12" cy="17" r="0.5" stroke="#212933" stroke-miterlimit="16"/>
<circle cx="12" cy="14.25" r="0.5" stroke="#212933" stroke-miterlimit="16"/>
<circle cx="16" cy="11.5" r="0.5" stroke="#212933" stroke-miterlimit="16"/>
<circle cx="16" cy="17" r="0.5" stroke="#212933" stroke-miterlimit="16"/>
<circle cx="16" cy="14.25" r="0.5" stroke="#212933" stroke-miterlimit="16"/>
<path d="M19 3H5C3.89543 3 3 3.89543 3 5V19C3 20.1046 3.89543 21 5 21H19C20.1046 21 21 20.1046 21 19V5C21 3.89543 20.1046 3 19 3Z" stroke="#212933" stroke-width="2"/>
</svg>

<svg width="24" height="24" fill="none" xmlns="http://www.w3.org/2000/svg">
    <path d="M7 7.95v-1.4a.05.05 0 01.05-.05h9.9a.05.05 0 01.05.05v1.4a.05.05 0 01-.05.05h-9.9A.05.05 0 017 7.95z" stroke="currentColor" stroke-width="2"/>
    <circle cx="8" cy="11.5" r=".5" stroke="currentColor" stroke-miterlimit="16"/>
    <circle cx="8" cy="17" r=".5" stroke="currentColor" stroke-miterlimit="16"/>
    <circle cx="8" cy="14.25" r=".5" stroke="currentColor" stroke-miterlimit="16"/>
    <circle cx="12" cy="11.5" r=".5" stroke="currentColor" stroke-miterlimit="16"/>
    <circle cx="12" cy="17" r=".5" stroke="currentColor" stroke-miterlimit="16"/>
    <circle cx="12" cy="14.25" r=".5" stroke="currentColor" stroke-miterlimit="16"/>
    <circle cx="16" cy="11.5" r=".5" stroke="currentColor" stroke-miterlimit="16"/>
    <circle cx="16" cy="17" r=".5" stroke="currentColor" stroke-miterlimit="16"/>
    <circle cx="16" cy="14.25" r=".5" stroke="currentColor" stroke-miterlimit="16"/>
    <path d="M19 3H5a2 2 0 00-2 2v14a2 2 0 002 2h14a2 2 0 002-2V5a2 2 0 00-2-2z" stroke="currentColor" stroke-width="2"/>
</svg>
